assets/icons/qvision/control_point_duplicate.svg

<svg xmlns="http://www.w3.org/2000/svg" height="24" viewBox="0 0 24 24" width="24"><path d="M0 0h24v24H0z" fill="none"/><path d="M16 8h-2v3h-3v2h3v3h2v-3h3v-2h-3zM2 12c0-2.79 1.64-5.2 4.01-6.32V3.52C2.52 4.76 0 8.09 0 12s2.52 7.24 6.01 8.48v-2.16C3.64 17.2 2 14.79 2 12zm13-9c-4.96 0-9 4.04-9 9s4.04 9 9 9 9-4.04 9-9-4.04-9-9-9zm0 16c-3.86 0-7-3.14-7-7s3.14-7 7-7 7 3.14 7 7-3.14 7-7 7z"/></svg>

<svg width="24" height="24" viewBox="0 0 24 24" fill="none" xmlns="http://www.w3.org/2000/svg">
<g clip-path="url(#clip0_147_3321)">
<path d="M16 8H14V11H11V13H14V16H16V13H19V11H16V8ZM2 12C2 9.21 3.64 6.8 6.01 5.68V3.52C2.52 4.76 0 8.09 0 12C0 15.91 2.52 19.24 6.01 20.48V18.32C3.64 17.2 2 14.79 2 12ZM15 3C10.04 3 6 7.04 6 12C6 16.96 10.04 21 15 21C19.96 21 24 16.96 24 12C24 7.04 19.96 3 15 3ZM15 19C11.14 19 8 15.86 8 12C8 8.14 11.14 5 15 5C18.86 5 22 8.14 22 12C22 15.86 18.86 19 15 19Z" fill="#323232"/>
</g>
<defs>
<clipPath id="clip0_147_3321">
<rect width="24" height="24" fill="white"/>
</clipPath>
</defs>
</svg>
